Numix-Light/16/status/indicator-keyboard-Ta-3.svg

<?xml version="1.0" encoding="UTF-8" standalone="no"?>
<svg
   xmlns:dc="http://purl.org/dc/elements/1.1/"
   xmlns:cc="http://creativecommons.org/ns#"
   xmlns:rdf="http://www.w3.org/1999/02/22-rdf-syntax-ns#"
   xmlns:svg="http://www.w3.org/2000/svg"
   xmlns="http://www.w3.org/2000/svg"
   xmlns:sodipodi="http://sodipodi.sourceforge.net/DTD/sodipodi-0.dtd"
   xmlns:inkscape="http://www.inkscape.org/namespaces/inkscape"
   viewBox="0 0 16 16"
   id="svg2"
   version="1.1"
   inkscape:version="0.91 r13725"
   sodipodi:docname="indicator-keyboard-Ta-3.svg">
  <metadata
     id="metadata14">
    <rdf:RDF>
      <cc:Work
         rdf:about="">
        <dc:format>image/svg+xml</dc:format>
        <dc:type
           rdf:resource="http://purl.org/dc/dcmitype/StillImage" />
      </cc:Work>
    </rdf:RDF>
  </metadata>
  <defs
     id="defs12" />
  <sodipodi:namedview
     pagecolor="#ffffff"
     bordercolor="#666666"
     borderopacity="1"
     objecttolerance="10"
     gridtolerance="10"
     guidetolerance="10"
     inkscape:pageopacity="0"
     inkscape:pageshadow="2"
     inkscape:window-width="640"
     inkscape:window-height="480"
     id="namedview10"
     showgrid="false"
     inkscape:zoom="14.75"
     inkscape:cx="8"
     inkscape:cy="8"
     inkscape:window-x="75"
     inkscape:window-y="34"
     inkscape:window-maximized="0"
     inkscape:current-layer="svg2" />
  <path
     style="fill:#353535;fill-opacity:1"
     d="M 1.5996094 0 C 0.71320937 2.9605947e-16 0 0.71320937 0 1.5996094 L 0 14.400391 C 2.9605947e-16 15.286791 0.71320937 16 1.5996094 16 L 14.400391 16 C 15.286791 16 16 15.286791 16 14.400391 L 16 1.5996094 C 16 0.71320937 15.286791 0 14.400391 0 L 1.5996094 0 z M 2.0566406 4.859375 L 6.6640625 4.859375 L 6.6640625 5.390625 L 4.6660156 5.390625 L 4.6660156 11.095703 L 4.0546875 11.095703 L 4.0546875 5.390625 L 2.0566406 5.390625 L 2.0566406 4.859375 z M 8.7226562 6.3359375 C 9.0286562 6.3359375 9.2860938 6.3807031 9.4960938 6.4707031 C 9.7120938 6.5547031 9.8855783 6.6740781 10.017578 6.8300781 C 10.149578 6.9800781 10.246641 7.1591406 10.306641 7.3691406 C 10.366641 7.5791406 10.396484 7.8086875 10.396484 8.0546875 L 10.396484 10.988281 C 10.336484 11.006281 10.248766 11.026781 10.134766 11.050781 C 10.020766 11.068781 9.8902344 11.089281 9.7402344 11.113281 C 9.5902344 11.137281 9.4223281 11.155969 9.2363281 11.167969 C 9.0563281 11.185969 8.8697344 11.195313 8.6777344 11.195312 C 8.4317344 11.195312 8.2041406 11.167281 7.9941406 11.113281 C 7.7901406 11.059281 7.609125 10.975328 7.453125 10.861328 C 7.303125 10.741328 7.18375 10.592109 7.09375 10.412109 C 7.00975 10.226109 6.9667969 10.000328 6.9667969 9.7363281 C 6.9667969 9.4843281 7.0153281 9.2698437 7.1113281 9.0898438 C 7.2073281 8.9098438 7.341625 8.7624375 7.515625 8.6484375 C 7.689625 8.5284375 7.8967188 8.4407187 8.1367188 8.3867188 C 8.3767187 8.3327188 8.6379219 8.3066406 8.9199219 8.3066406 C 9.0039219 8.3066406 9.0916406 8.3122187 9.1816406 8.3242188 C 9.2776406 8.3302187 9.3671719 8.341375 9.4511719 8.359375 C 9.5411719 8.371375 9.6157812 8.3862969 9.6757812 8.4042969 C 9.7417812 8.4162969 9.7865469 8.4294063 9.8105469 8.4414062 L 9.8105469 8.1523438 C 9.8105469 7.9903438 9.7993906 7.8355469 9.7753906 7.6855469 C 9.7513906 7.5295469 9.6972812 7.3914844 9.6132812 7.2714844 C 9.5352812 7.1454844 9.4214844 7.0466094 9.2714844 6.9746094 C 9.1274844 6.8966094 8.9353125 6.8574219 8.6953125 6.8574219 C 8.3533125 6.8574219 8.0976875 6.8816875 7.9296875 6.9296875 C 7.7616875 6.9776875 7.6385469 7.016875 7.5605469 7.046875 L 7.4804688 6.5332031 C 7.5824687 6.4852031 7.7392188 6.4404375 7.9492188 6.3984375 C 8.1652188 6.3564375 8.4226562 6.3359375 8.7226562 6.3359375 z M 12.574219 8.7539062 C 12.777019 8.7539062 12.951403 8.7793781 13.095703 8.8300781 C 13.243903 8.8807781 13.365391 8.953275 13.462891 9.046875 C 13.560391 9.136575 13.632888 9.2463 13.679688 9.375 C 13.726487 9.4997999 13.75 9.6350031 13.75 9.7832031 C 13.75 10.021103 13.685341 10.217041 13.556641 10.369141 C 13.431841 10.517341 13.271166 10.625106 13.072266 10.691406 C 13.181466 10.718706 13.285319 10.759859 13.386719 10.818359 C 13.492019 10.872959 13.586069 10.945456 13.667969 11.035156 C 13.749869 11.120956 13.816487 11.226762 13.867188 11.351562 C 13.917887 11.476363 13.943359 11.623316 13.943359 11.791016 C 13.943359 11.962616 13.912009 12.119372 13.849609 12.263672 C 13.791109 12.407972 13.700978 12.535331 13.580078 12.644531 C 13.463078 12.749831 13.314159 12.834084 13.130859 12.896484 C 12.947559 12.954984 12.732028 12.984375 12.486328 12.984375 C 12.357628 12.984375 12.238106 12.974578 12.128906 12.955078 C 12.023606 12.939478 11.931509 12.919884 11.849609 12.896484 C 11.767709 12.873084 11.697172 12.849572 11.638672 12.826172 C 11.584072 12.802772 11.542925 12.783178 11.515625 12.767578 L 11.615234 12.427734 C 11.638634 12.443334 11.677822 12.462928 11.732422 12.486328 C 11.787022 12.509728 11.851681 12.533241 11.925781 12.556641 C 12.003781 12.576141 12.088041 12.593775 12.181641 12.609375 C 12.279141 12.624975 12.384947 12.632813 12.498047 12.632812 C 12.868547 12.632812 13.133069 12.556397 13.292969 12.404297 C 13.452869 12.248297 13.533203 12.040597 13.533203 11.779297 C 13.533203 11.607697 13.499894 11.464662 13.433594 11.351562 C 13.371194 11.238462 13.284975 11.148331 13.171875 11.082031 C 13.062675 11.011831 12.933356 10.962847 12.785156 10.935547 C 12.640856 10.904347 12.486066 10.888672 12.322266 10.888672 L 12.263672 10.888672 L 12.263672 10.574219 L 12.398438 10.574219 C 12.503738 10.574219 12.611503 10.564422 12.720703 10.544922 C 12.833803 10.521522 12.935691 10.480375 13.025391 10.421875 C 13.118991 10.363375 13.193453 10.285 13.251953 10.1875 C 13.314353 10.09 13.345703 9.9646001 13.345703 9.8125 C 13.345703 9.6838 13.32415 9.5760281 13.28125 9.4863281 C 13.23835 9.3927281 13.181522 9.3182719 13.107422 9.2636719 C 13.037222 9.2090719 12.952969 9.1698844 12.855469 9.1464844 C 12.761869 9.1191844 12.661941 9.1054687 12.556641 9.1054688 C 12.346041 9.1054688 12.181453 9.1348594 12.064453 9.1933594 C 11.947453 9.2518594 11.853397 9.3067219 11.779297 9.3574219 L 11.615234 9.0585938 C 11.654234 9.0312937 11.703219 8.9999437 11.761719 8.9648438 C 11.824119 8.9297437 11.894662 8.8964344 11.976562 8.8652344 C 12.058463 8.8340344 12.148594 8.8085625 12.246094 8.7890625 C 12.347494 8.7656625 12.457219 8.7539062 12.574219 8.7539062 z M 8.9023438 8.8105469 C 8.7583438 8.8105469 8.609125 8.8217031 8.453125 8.8457031 C 8.297125 8.8637031 8.1534844 8.9084688 8.0214844 8.9804688 C 7.8894844 9.0464687 7.7812656 9.1397656 7.6972656 9.2597656 C 7.6132656 9.3797656 7.5703125 9.5383281 7.5703125 9.7363281 C 7.5703125 9.9103281 7.5983437 10.057734 7.6523438 10.177734 C 7.7123438 10.297734 7.7925313 10.394797 7.8945312 10.466797 C 8.0025313 10.538797 8.1294375 10.592906 8.2734375 10.628906 C 8.4234375 10.658906 8.5913437 10.673828 8.7773438 10.673828 C 9.0053437 10.673828 9.2030937 10.666297 9.3710938 10.654297 C 9.5450938 10.636297 9.6905469 10.615797 9.8105469 10.591797 L 9.8105469 8.953125 C 9.7445469 8.923125 9.6400938 8.8932812 9.4960938 8.8632812 C 9.3520938 8.8272813 9.1543437 8.8105469 8.9023438 8.8105469 z "
     id="path4" />
</svg>

<svg xmlns="http://www.w3.org/2000/svg" viewBox="0 0 16 16">
 <path d="m 1.6 0 c -0.886 0 -1.6 0.713 -1.6 1.6 l 0 12.801 c 0 0.886 0.713 1.6 1.6 1.6 l 12.801 0 c 0.886 0 1.6 -0.713 1.6 -1.6 l 0 -12.801 c 0 -0.886 -0.713 -1.6 -1.6 -1.6 l -12.801 0 z m 0.457 4.859 l 4.607 0 l 0 0.531 l -1.998 0 l 0 5.705 l -0.611 0 l 0 -5.705 l -1.998 0 l 0 -0.531 z m 6.666 1.477 c 0.306 0 0.563 0.045 0.773 0.135 c 0.216 0.084 0.389 0.203 0.521 0.359 c 0.132 0.15 0.229 0.329 0.289 0.539 c 0.06 0.21 0.09 0.44 0.09 0.686 l 0 2.934 c -0.06 0.018 -0.148 0.038 -0.262 0.063 c -0.114 0.018 -0.245 0.038 -0.395 0.063 c -0.15 0.024 -0.318 0.043 -0.504 0.055 c -0.18 0.018 -0.367 0.027 -0.559 0.027 c -0.246 0 -0.474 -0.028 -0.684 -0.082 c -0.204 -0.054 -0.385 -0.138 -0.541 -0.252 c -0.15 -0.12 -0.269 -0.269 -0.359 -0.449 c -0.084 -0.186 -0.127 -0.412 -0.127 -0.676 c 0 -0.252 0.049 -0.466 0.145 -0.646 c 0.096 -0.18 0.23 -0.327 0.404 -0.441 c 0.174 -0.12 0.381 -0.208 0.621 -0.262 c 0.24 -0.054 0.501 -0.08 0.783 -0.08 c 0.084 0 0.172 0.006 0.262 0.018 c 0.096 0.006 0.186 0.017 0.27 0.035 c 0.09 0.012 0.165 0.027 0.225 0.045 c 0.066 0.012 0.111 0.025 0.135 0.037 l 0 -0.289 c 0 -0.162 -0.011 -0.317 -0.035 -0.467 c -0.024 -0.156 -0.078 -0.294 -0.162 -0.414 c -0.078 -0.126 -0.192 -0.225 -0.342 -0.297 c -0.144 -0.078 -0.336 -0.117 -0.576 -0.117 c -0.342 0 -0.598 0.024 -0.766 0.072 c -0.168 0.048 -0.291 0.087 -0.369 0.117 l -0.08 -0.514 c 0.102 -0.048 0.259 -0.093 0.469 -0.135 c 0.216 -0.042 0.473 -0.063 0.773 -0.063 z m 3.852 2.418 c 0.203 0 0.377 0.025 0.521 0.076 c 0.148 0.051 0.27 0.123 0.367 0.217 c 0.097 0.09 0.17 0.199 0.217 0.328 c 0.047 0.125 0.07 0.26 0.07 0.408 c 0 0.238 -0.065 0.434 -0.193 0.586 c -0.125 0.148 -0.285 0.256 -0.484 0.322 c 0.109 0.027 0.213 0.068 0.314 0.127 c 0.105 0.055 0.199 0.127 0.281 0.217 c 0.082 0.086 0.149 0.192 0.199 0.316 c 0.051 0.125 0.076 0.272 0.076 0.439 c 0 0.172 -0.031 0.328 -0.094 0.473 c -0.058 0.144 -0.149 0.272 -0.27 0.381 c -0.117 0.105 -0.266 0.19 -0.449 0.252 c -0.183 0.059 -0.399 0.088 -0.645 0.088 c -0.129 0 -0.248 -0.01 -0.357 -0.029 c -0.105 -0.016 -0.197 -0.035 -0.279 -0.059 c -0.082 -0.023 -0.152 -0.047 -0.211 -0.07 c -0.055 -0.023 -0.096 -0.043 -0.123 -0.059 l 0.1 -0.34 c 0.023 0.016 0.063 0.035 0.117 0.059 c 0.055 0.023 0.119 0.047 0.193 0.07 c 0.078 0.019 0.162 0.037 0.256 0.053 c 0.097 0.016 0.203 0.023 0.316 0.023 c 0.37 0 0.635 -0.076 0.795 -0.229 c 0.16 -0.156 0.24 -0.364 0.24 -0.625 c 0 -0.172 -0.033 -0.315 -0.1 -0.428 c -0.062 -0.113 -0.149 -0.203 -0.262 -0.27 c -0.109 -0.07 -0.239 -0.119 -0.387 -0.146 c -0.144 -0.031 -0.299 -0.047 -0.463 -0.047 l -0.059 0 l 0 -0.314 l 0.135 0 c 0.105 0 0.213 -0.01 0.322 -0.029 c 0.113 -0.023 0.215 -0.065 0.305 -0.123 c 0.094 -0.059 0.168 -0.137 0.227 -0.234 c 0.062 -0.098 0.094 -0.223 0.094 -0.375 c 0 -0.129 -0.022 -0.236 -0.064 -0.326 c -0.043 -0.094 -0.1 -0.168 -0.174 -0.223 c -0.07 -0.055 -0.154 -0.094 -0.252 -0.117 c -0.094 -0.027 -0.194 -0.041 -0.299 -0.041 c -0.211 0 -0.375 0.029 -0.492 0.088 c -0.117 0.059 -0.211 0.113 -0.285 0.164 l -0.164 -0.299 c 0.039 -0.027 0.088 -0.059 0.146 -0.094 c 0.062 -0.035 0.133 -0.068 0.215 -0.1 c 0.082 -0.031 0.172 -0.057 0.27 -0.076 c 0.101 -0.023 0.211 -0.035 0.328 -0.035 z m -3.672 0.057 c -0.144 0 -0.293 0.011 -0.449 0.035 c -0.156 0.018 -0.3 0.063 -0.432 0.135 c -0.132 0.066 -0.24 0.159 -0.324 0.279 c -0.084 0.12 -0.127 0.279 -0.127 0.477 c 0 0.174 0.028 0.321 0.082 0.441 c 0.06 0.12 0.14 0.217 0.242 0.289 c 0.108 0.072 0.235 0.126 0.379 0.162 c 0.15 0.03 0.318 0.045 0.504 0.045 c 0.228 0 0.426 -0.008 0.594 -0.02 c 0.174 -0.018 0.319 -0.038 0.439 -0.063 l 0 -1.639 c -0.066 -0.03 -0.17 -0.06 -0.314 -0.09 c -0.144 -0.036 -0.342 -0.053 -0.594 -0.053 z" style="fill:#353535;fill-opacity:1"/>
</svg>
